SVG_Azure_Grouped/Compute/Azure Stack Capacity.svg

<?xml version="1.0" encoding="UTF-8" standalone="no"?>
<!-- Generated by Microsoft Visio, SVG Export Azure Stack Capacity.svg Page-1 -->

<svg
   xmlns:dc="http://purl.org/dc/elements/1.1/"
   xmlns:cc="http://creativecommons.org/ns#"
   xmlns:rdf="http://www.w3.org/1999/02/22-rdf-syntax-ns#"
   xmlns:svg="http://www.w3.org/2000/svg"
   xmlns="http://www.w3.org/2000/svg"
   xmlns:sodipodi="http://sodipodi.sourceforge.net/DTD/sodipodi-0.dtd"
   xmlns:inkscape="http://www.inkscape.org/namespaces/inkscape"
   width="0.62992561in"
   height="0.78738022in"
   viewBox="0 0 45.354618 56.691516"
   xml:space="preserve"
   class="st9"
   version="1.1"
   id="svg105"
   sodipodi:docname="Azure Stack Capacity.svg"
   style="font-size:12px;overflow:visible;color-interpolation-filters:sRGB;fill:none;fill-rule:evenodd;stroke-linecap:square;stroke-miterlimit:3"
   inkscape:version="0.92.5 (2060ec1f9f, 2020-04-08)"><metadata
   id="metadata109"><rdf:RDF><cc:Work
       rdf:about=""><dc:format>image/svg+xml</dc:format><dc:type
         rdf:resource="http://purl.org/dc/dcmitype/StillImage" /></cc:Work></rdf:RDF></metadata><sodipodi:namedview
   pagecolor="#ffffff"
   bordercolor="#666666"
   borderopacity="1"
   objecttolerance="10"
   gridtolerance="10"
   guidetolerance="10"
   inkscape:pageopacity="0"
   inkscape:pageshadow="2"
   inkscape:window-width="640"
   inkscape:window-height="480"
   id="namedview107"
   showgrid="false"
   inkscape:zoom="1.8365233"
   inkscape:cx="30.236497"
   inkscape:cy="18.900351"
   inkscape:window-x="0"
   inkscape:window-y="0"
   inkscape:window-maximized="0"
   inkscape:current-layer="svg105" />
	<style
   type="text/css"
   id="style2">
	<![CDATA[
		.st1 {fill:url(#grad0-7);stroke:none;stroke-linecap:butt;stroke-width:0.75}
		.st2 {fill:#003067;stroke:none;stroke-linecap:butt;stroke-width:0.75}
		.st3 {fill:#50e6ff;stroke:none;stroke-linecap:butt;stroke-width:0.75}
		.st4 {fill:#76bc2d;stroke:none;stroke-linecap:butt;stroke-width:0.75}
		.st5 {fill:#5e9624;stroke:none;stroke-linecap:butt;stroke-width:0.75}
		.st6 {fill:url(#grad0-23);stroke:none;stroke-linecap:butt;stroke-width:0.75}
		.st7 {fill:#005ba1;stroke:none;stroke-linecap:butt;stroke-width:0.75}
		.st8 {fill:#0078d4;stroke:none;stroke-linecap:butt;stroke-width:0.75}
		.st9 {fill:none;fill-rule:evenodd;font-size:12px;overflow:visible;stroke-linecap:square;stroke-miterlimit:3}
	]]>
	</style>

	<defs
   id="Patterns_And_Gradients">
		<linearGradient
   id="grad0-7"
   x1="-0.00036196929"
   y1="28.484698"
   x2="40.18365"
   y2="28.484698"
   gradientTransform="scale(0.71247883,1.4035505)"
   gradientUnits="userSpaceOnUse">
			<stop
   offset="0"
   stop-color="#949494"
   stop-opacity="1"
   id="stop4" />
			<stop
   offset="0.53"
   stop-color="#a2a2a2"
   stop-opacity="1"
   id="stop6" />
			<stop
   offset="1"
   stop-color="#b3b3b3"
   stop-opacity="1"
   id="stop8" />
		</linearGradient>
		<linearGradient
   id="grad0-23"
   x1="0"
   y1="122.65976"
   x2="17.291906"
   y2="122.65976"
   gradientTransform="scale(1.4521129,0.68865168)"
   gradientUnits="userSpaceOnUse">
			<stop
   offset="0"
   stop-color="#0078d4"
   stop-opacity="1"
   id="stop11" />
			<stop
   offset="0.02"
   stop-color="#0d7ed8"
   stop-opacity="1"
   id="stop13" />
			<stop
   offset="0.08"
   stop-color="#2b8ae0"
   stop-opacity="1"
   id="stop15" />
			<stop
   offset="0.15"
   stop-color="#4194e7"
   stop-opacity="1"
   id="stop17" />
			<stop
   offset="0.22"
   stop-color="#519beb"
   stop-opacity="1"
   id="stop19" />
			<stop
   offset="0.29"
   stop-color="#5b9fee"
   stop-opacity="1"
   id="stop21" />
			<stop
   offset="0.4"
   stop-color="#5ea0ef"
   stop-opacity="1"
   id="stop23" />
			<stop
   offset="0.55"
   stop-color="#5b9fee"
   stop-opacity="1"
   id="stop25" />
			<stop
   offset="0.68"
   stop-color="#509aeb"
   stop-opacity="1"
   id="stop27" />
			<stop
   offset="0.8"
   stop-color="#3f92e6"
   stop-opacity="1"
   id="stop29" />
			<stop
   offset="0.91"
   stop-color="#2688df"
   stop-opacity="1"
   id="stop31" />
			<stop
   offset="0.99"
   stop-color="#127fd9"
   stop-opacity="1"
   id="stop33" />
		</linearGradient>
	</defs>
	<g
   id="g103"
   transform="translate(-4.5352545,-5.6727798)">
		<title
   id="title37">Page-1</title>
		<g
   id="group11806-1"
   transform="translate(4.53543,-34.0157)">
			<title
   id="title39">Azure Stack Capacity.11806</title>
			<g
   id="group11807-2">
				<title
   id="title41">Sheet.11807</title>
				<g
   id="group11808-3"
   transform="translate(0,-0.291231)">
					<title
   id="title43">Sheet.11808</title>
					<g
   id="shape11809-4">
						<title
   id="title45">Sheet.11809</title>
						<path
   d="m 28.63,94.47 a 1.67772,1.94154 0 0 1 -1.65,1.91 H 1.65 A 1.64976,1.90918 0 0 1 0,94.47 V 41.89 a 1.62179,1.87682 0 0 1 1.65,-1.91 h 25.33 a 1.64976,1.90918 0 0 1 1.65,1.91 z"
   class="st1"
   id="path47"
   inkscape:connector-curvature="0"
   style="fill:url(#grad0-7);stroke:none;stroke-width:0.75;stroke-linecap:butt" />
					</g>
					<g
   id="shape11810-8"
   transform="translate(4.1943,-33.0061)">
						<title
   id="title50">Sheet.11810</title>
						<path
   d="m 0,92.75 a 3.13174,3.6242 0 0 1 3.13,-3.59 h 14.23 a 3.10378,3.59185 0 0 1 3.11,3.59 3.10378,3.59185 0 0 1 -3.11,3.63 H 3.13 A 3.13174,3.6242 0 0 1 0,92.75 Z"
   class="st2"
   id="path52"
   inkscape:connector-curvature="0"
   style="fill:#003067;stroke:none;stroke-width:0.75;stroke-linecap:butt" />
					</g>
					<g
   id="shape11811-10"
   transform="translate(4.1943,-43.717)">
						<title
   id="title55">Sheet.11811</title>
						<path
   d="m 0,92.79 a 3.10378,3.59185 0 0 1 3.13,-3.47 h 14.23 a 3.07582,3.55949 0 0 1 3.11,3.47 3.10378,3.59185 0 0 1 -3.11,3.59 H 3.13 A 3.13174,3.6242 0 0 1 0,92.79 Z"
   class="st2"
   id="path57"
   inkscape:connector-curvature="0"
   style="fill:#003067;stroke:none;stroke-width:0.75;stroke-linecap:butt" />
					</g>
					<g
   id="shape11812-12"
   transform="translate(5.34074,-44.8819)">
						<title
   id="title60">Sheet.11812</title>
						<ellipse
   cx="2.0971501"
   cy="93.950996"
   rx="2.0971501"
   ry="2.4269199"
   class="st3"
   id="ellipse62"
   style="fill:#50e6ff;stroke:none;stroke-width:0.75;stroke-linecap:butt" />
					</g>
					<g
   id="shape11813-14"
   transform="translate(5.34074,-34.2034)">
						<title
   id="title65">Sheet.11813</title>
						<ellipse
   cx="2.0971501"
   cy="93.950996"
   rx="2.0971501"
   ry="2.4269199"
   class="st3"
   id="ellipse67"
   style="fill:#50e6ff;stroke:none;stroke-width:0.75;stroke-linecap:butt" />
					</g>
				</g>
				<g
   id="shape11814-16"
   transform="translate(20.2445,-3.33297)">
					<title
   id="title71">Sheet.11814</title>
					<ellipse
   cx="12.5549"
   cy="90.423897"
   rx="12.5549"
   ry="5.9540501"
   class="st4"
   id="ellipse73"
   style="fill:#76bc2d;stroke:none;stroke-width:0.75;stroke-linecap:butt" />
				</g>
				<g
   id="shape11815-18"
   transform="translate(28.9406,-8.02502)">
					<title
   id="title76">Sheet.11815</title>
					<ellipse
   cx="4.1663299"
   cy="95.051201"
   rx="4.1663299"
   ry="1.32672"
   class="st5"
   id="ellipse78"
   style="fill:#5e9624;stroke:none;stroke-width:0.75;stroke-linecap:butt" />
				</g>
				<g
   id="shape11816-20"
   transform="translate(20.2445,-16.5678)">
					<title
   id="title81">Sheet.11816</title>
					<ellipse
   cx="12.5549"
   cy="90.423897"
   rx="12.5549"
   ry="5.9540501"
   class="st6"
   id="ellipse83"
   style="fill:url(#grad0-23);stroke:none;stroke-width:0.75;stroke-linecap:butt" />
				</g>
				<g
   id="shape11817-24"
   transform="translate(28.9406,-21.2598)">
					<title
   id="title86">Sheet.11817</title>
					<ellipse
   cx="4.1663299"
   cy="95.051201"
   rx="4.1663299"
   ry="1.32672"
   class="st7"
   id="ellipse88"
   style="fill:#005ba1;stroke:none;stroke-width:0.75;stroke-linecap:butt" />
				</g>
				<g
   id="shape11818-26"
   transform="translate(20.2445)">
					<title
   id="title91">Sheet.11818</title>
					<path
   d="m 12.55,92.95 c 6.94,0 12.56,-2.69 12.56,-5.99 v 3.66 C 24.86,93.85 19.35,96.38 12.55,96.38 5.76,96.38 0,93.72 0,90.42 v -3.23 c 0,3.07 5.62,5.76 12.55,5.76 z"
   class="st5"
   id="path93"
   inkscape:connector-curvature="0"
   style="fill:#5e9624;stroke:none;stroke-width:0.75;stroke-linecap:butt" />
				</g>
				<g
   id="shape11819-28"
   transform="translate(20.2445,-13.3643)">
					<title
   id="title96">Sheet.11819</title>
					<path
   d="m 12.55,93.04 c 6.94,0 12.56,-2.65 12.56,-5.95 v 3.53 C 24.86,93.85 19.35,96.38 12.55,96.38 5.76,96.38 0,93.69 0,90.39 v -3.23 c 0,3.23 5.62,5.88 12.55,5.88 z"
   class="st8"
   id="path98"
   inkscape:connector-curvature="0"
   style="fill:#0078d4;stroke:none;stroke-width:0.75;stroke-linecap:butt" />
				</g>
			</g>
		</g>
	</g>
</svg>

<?xml version="1.0" encoding="UTF-8" standalone="no"?>
<!DOCTYPE svg PUBLIC "-//W3C//DTD SVG 1.1//EN" "http://www.w3.org/Graphics/SVG/1.1/DTD/svg11.dtd">
<!-- Generated by Microsoft Visio, SVG Export Azure Stack Capacity.svg Page-1 -->
<svg xmlns="http://www.w3.org/2000/svg" xmlns:xlink="http://www.w3.org/1999/xlink" xmlns:ev="http://www.w3.org/2001/xml-events"
		width="0.755906in" height="1.33858in" viewBox="0 0 54.4252 96.378" xml:space="preserve" color-interpolation-filters="sRGB"
		class="st9">
	<style type="text/css">
	<![CDATA[
		.st1 {fill:url(#grad0-7);stroke:none;stroke-linecap:butt;stroke-width:0.75}
		.st2 {fill:#003067;stroke:none;stroke-linecap:butt;stroke-width:0.75}
		.st3 {fill:#50e6ff;stroke:none;stroke-linecap:butt;stroke-width:0.75}
		.st4 {fill:#76bc2d;stroke:none;stroke-linecap:butt;stroke-width:0.75}
		.st5 {fill:#5e9624;stroke:none;stroke-linecap:butt;stroke-width:0.75}
		.st6 {fill:url(#grad0-23);stroke:none;stroke-linecap:butt;stroke-width:0.75}
		.st7 {fill:#005ba1;stroke:none;stroke-linecap:butt;stroke-width:0.75}
		.st8 {fill:#0078d4;stroke:none;stroke-linecap:butt;stroke-width:0.75}
		.st9 {fill:none;fill-rule:evenodd;font-size:12px;overflow:visible;stroke-linecap:square;stroke-miterlimit:3}
	]]>
	</style>

	<defs id="Patterns_And_Gradients">
		<linearGradient id="grad0-7" x1="0" y1="0" x2="1" y2="0" gradientTransform="rotate(-90 0.5 0.5)">
			<stop offset="0" stop-color="#949494" stop-opacity="1"/>
			<stop offset="0.53" stop-color="#a2a2a2" stop-opacity="1"/>
			<stop offset="1" stop-color="#b3b3b3" stop-opacity="1"/>
		</linearGradient>
		<linearGradient id="grad0-23" x1="0" y1="0" x2="1" y2="0" gradientTransform="rotate(76.668659428474 0.5 0.5)">
			<stop offset="0" stop-color="#0078d4" stop-opacity="1"/>
			<stop offset="0.02" stop-color="#0d7ed8" stop-opacity="1"/>
			<stop offset="0.08" stop-color="#2b8ae0" stop-opacity="1"/>
			<stop offset="0.15" stop-color="#4194e7" stop-opacity="1"/>
			<stop offset="0.22" stop-color="#519beb" stop-opacity="1"/>
			<stop offset="0.29" stop-color="#5b9fee" stop-opacity="1"/>
			<stop offset="0.4" stop-color="#5ea0ef" stop-opacity="1"/>
			<stop offset="0.55" stop-color="#5b9fee" stop-opacity="1"/>
			<stop offset="0.68" stop-color="#509aeb" stop-opacity="1"/>
			<stop offset="0.8" stop-color="#3f92e6" stop-opacity="1"/>
			<stop offset="0.91" stop-color="#2688df" stop-opacity="1"/>
			<stop offset="0.99" stop-color="#127fd9" stop-opacity="1"/>
		</linearGradient>
	</defs>
	<g>
		<title>Page-1</title>
		<g id="group11527-1" transform="translate(4.53543,-34.0157)">
			<title>Azure Stack Capacity.11527</title>
			<g id="group11528-2">
				<title>Sheet.11528</title>
				<g id="group11529-3" transform="translate(0,-0.291231)">
					<title>Sheet.11529</title>
					<g id="shape11530-4">
						<title>Sheet.11530</title>
						<path d="M28.63 94.47 A1.67772 1.94154 0 0 1 26.98 96.38 L1.65 96.38 A1.64976 1.90918 0 0 1 0 94.47 L0 41.89
									 A1.62179 1.87682 0 0 1 1.65 39.98 L26.98 39.98 A1.64976 1.90918 0 0 1 28.63 41.89 L28.63 94.47
									 Z" class="st1"/>
					</g>
					<g id="shape11531-8" transform="translate(4.1943,-33.0061)">
						<title>Sheet.11531</title>
						<path d="M0 92.75 A3.13174 3.6242 0 0 1 3.13 89.16 L17.36 89.16 A3.10378 3.59185 0 0 1 20.47 92.75 A3.10378
									 3.59185 0 0 1 17.36 96.38 L3.13 96.38 A3.13174 3.6242 0 0 1 0 92.75 Z" class="st2"/>
					</g>
					<g id="shape11532-10" transform="translate(4.1943,-43.717)">
						<title>Sheet.11532</title>
						<path d="M0 92.79 A3.10378 3.59185 0 0 1 3.13 89.32 L17.36 89.32 A3.07582 3.55949 0 0 1 20.47 92.79 A3.10378
									 3.59185 0 0 1 17.36 96.38 L3.13 96.38 A3.13174 3.6242 0 0 1 0 92.79 Z" class="st2"/>
					</g>
					<g id="shape11533-12" transform="translate(5.34074,-44.8819)">
						<title>Sheet.11533</title>
						<ellipse cx="2.09715" cy="93.951" rx="2.09715" ry="2.42692" class="st3"/>
					</g>
					<g id="shape11534-14" transform="translate(5.34074,-34.2034)">
						<title>Sheet.11534</title>
						<ellipse cx="2.09715" cy="93.951" rx="2.09715" ry="2.42692" class="st3"/>
					</g>
				</g>
				<g id="shape11535-16" transform="translate(20.2445,-3.33297)">
					<title>Sheet.11535</title>
					<ellipse cx="12.5549" cy="90.4239" rx="12.5549" ry="5.95405" class="st4"/>
				</g>
				<g id="shape11536-18" transform="translate(28.9406,-8.02502)">
					<title>Sheet.11536</title>
					<ellipse cx="4.16633" cy="95.0512" rx="4.16633" ry="1.32672" class="st5"/>
				</g>
				<g id="shape11537-20" transform="translate(20.2445,-16.5678)">
					<title>Sheet.11537</title>
					<ellipse cx="12.5549" cy="90.4239" rx="12.5549" ry="5.95405" class="st6"/>
				</g>
				<g id="shape11538-24" transform="translate(28.9406,-21.2598)">
					<title>Sheet.11538</title>
					<ellipse cx="4.16633" cy="95.0512" rx="4.16633" ry="1.32672" class="st7"/>
				</g>
				<g id="shape11539-26" transform="translate(20.2445,0)">
					<title>Sheet.11539</title>
					<path d="M12.55 92.95 C19.49 92.95 25.11 90.26 25.11 86.96 L25.11 90.62 C24.86 93.85 19.35 96.38 12.55 96.38
								 C5.76 96.38 0 93.72 0 90.42 L0 87.19 C0 90.26 5.62 92.95 12.55 92.95 Z" class="st5"/>
				</g>
				<g id="shape11540-28" transform="translate(20.2445,-13.3643)">
					<title>Sheet.11540</title>
					<path d="M12.55 93.04 C19.49 93.04 25.11 90.39 25.11 87.09 L25.11 90.62 C24.86 93.85 19.35 96.38 12.55 96.38
								 C5.76 96.38 0 93.69 0 90.39 L0 87.16 C0 90.39 5.62 93.04 12.55 93.04 Z" class="st8"/>
				</g>
			</g>
		</g>
	</g>
</svg>
